Newaita-dark/mimetypes/24/office-database.svg

<svg height="24" viewBox="0 0 24 24" width="24" xmlns="http://www.w3.org/2000/svg" xmlns:xlink="http://www.w3.org/1999/xlink"><linearGradient id="a" gradientUnits="userSpaceOnUse" x1="12.403533" x2="12.403533" y1="21.02545225" y2="22.01773525002"><stop offset="0" stop-opacity=".27451"/><stop offset="1" stop-opacity="0"/></linearGradient><linearGradient id="b"><stop offset="0" stop-opacity=".313726"/><stop offset=".222222" stop-opacity=".27451"/><stop offset="1" stop-opacity="0"/></linearGradient><radialGradient id="c" cx="450.908936" cy="189.579361" gradientTransform="matrix(.00000013 -.0585994 -.105479 -.00000008 37.113427 47.696499)" gradientUnits="userSpaceOnUse" r="21.166656" xlink:href="#b"/><radialGradient id="d" cx="450.908936" cy="189.579361" gradientTransform="matrix(-.00000013 .0585994 .105479 .00000008 -13.794787 -5.645609)" gradientUnits="userSpaceOnUse" r="21.166656" xlink:href="#b"/><radialGradient id="e" cx="450.908936" cy="189.579361" gradientTransform="matrix(-.00000013 -.0585994 .105479 -.00000008 -13.794787 47.696499)" gradientUnits="userSpaceOnUse" r="21.166656" xlink:href="#b"/><radialGradient id="f" cx="450.908936" cy="189.579361" gradientTransform="matrix(.00000013 .0585994 -.105479 .00000008 37.113425 -5.64561)" gradientUnits="userSpaceOnUse" r="21.166656" xlink:href="#b"/><linearGradient id="g" gradientUnits="userSpaceOnUse" x1="11.65932281255" x2="11.65932281255" y1="17.05631899998" y2="6.63735050001"><stop offset="0" stop-color="#9e9e9e"/><stop offset="1" stop-color="#bdbdbd"/></linearGradient><linearGradient id="h" gradientUnits="userSpaceOnUse" x1="248.708344" x2="248.708344" xlink:href="#b" y1="148.833328" y2="-73.416664"/><linearGradient id="i"><stop offset="0" stop-color="#bdbdbd"/><stop offset=".5" stop-color="#e0e0e0"/><stop offset="1" stop-color="#bdbdbd"/></linearGradient><linearGradient id="j" gradientUnits="userSpaceOnUse" x1="3.96913087499" x2="19.349513625" xlink:href="#i" y1="18.048602" y2="18.048602"/><linearGradient id="k" gradientUnits="userSpaceOnUse" x1="3.89881162499" x2="19.349513625" xlink:href="#i" y1="5.14892599998" y2="5.14892675005"/><linearGradient id="l" gradientUnits="userSpaceOnUse" x1="3.96913087499" x2="19.349513625" xlink:href="#i" y1="11.59876399999" y2="11.59876399999"/><path d="m5.953125 21.027344h11.410156v.992187h-11.410156zm0 0" fill="url(#a)"/><path d="m17.363281 21.027344h1.984375v-.996094h-1.984375zm0 0" fill="url(#c)"/><path d="m5.953125 21.027344h-1.984375v.992187h1.984375zm0 0" fill="url(#d)"/><path d="m5.953125 21.027344h-1.984375v-.996094h1.984375zm0 0" fill="url(#e)"/><path d="m17.363281 21.027344h1.984375v.992187h-1.984375zm0 0" fill="url(#f)"/><path d="m3.96875 19.648438v.382812c0 .550781.441406.996094.992188.996094h13.394531c.550781 0 .992187-.445313.992187-.996094v-.382812c0 .550781-.441406.992187-.992187.992187h-13.394531c-.550782 0-.992188-.441406-.992188-.992187zm0 0" fill-opacity=".235294"/><path d="m4.960938 6.636719h13.394531v10.417969h-13.394531zm0 0" fill="url(#g)"/><path d="m105.823228-73.430186h285.722715v222.228778h-285.722715zm0 0" fill="url(#h)" stroke="#212121" stroke-linecap="round" stroke-linejoin="round" stroke-width="3" transform="matrix(.0468795 0 0 .0468795 0 10.079087)"/><path d="m4.960938 15.070312h13.394531c.550781 0 .992187.445313.992187.992188v3.96875c0 .550781-.441406.996094-.992187.996094h-13.394531c-.546876 0-.992188-.445313-.992188-.996094v-3.96875c0-.546875.445312-.992188.992188-.992188zm0 0" fill="url(#j)"/><path d="m4.960938 2.171875h13.394531c.550781 0 .992187.445313.992187.992187v3.96875c0 .546876-.441406.992188-.992187.992188h-13.394531c-.546876 0-.992188-.445312-.992188-.992188v-3.96875c0-.546874.445312-.992187.992188-.992187zm0 0" fill="url(#k)"/><path d="m4.960938 8.621094h13.394531c.550781 0 .992187.445312.992187.992187v3.96875c0 .550781-.441406.992188-.992187.992188h-13.394531c-.546876 0-.992188-.441407-.992188-.992188v-3.96875c0-.546875.445312-.992187.992188-.992187zm0 0" fill="url(#l)"/><path d="m4.960938 15.070312c-.550782 0-.992188.445313-.992188.992188v.25c0-.550781.441406-.992188.992188-.992188h13.394531c.550781 0 .992187.441407.992187.992188v-.25c0-.546875-.441406-.992188-.992187-.992188zm0 0" fill="#fff"/><path d="m4.960938 2.171875c-.550782 0-.992188.441406-.992188.992187v.25c0-.550781.441406-.992187.992188-.992187h13.394531c.550781 0 .992187.441406.992187.992187v-.25c0-.550781-.441406-.992187-.992187-.992187zm0 0" fill="#fff"/><path d="m4.960938 8.621094c-.550782 0-.992188.445312-.992188.992187v.25c0-.550781.441406-.992187.992188-.992187h13.394531c.550781 0 .992187.441406.992187.992187v-.25c0-.546875-.441406-.992187-.992187-.992187zm0 0" fill="#fff"/><g fill-opacity=".235294"><path d="m3.96875 19.847656v.183594c0 .550781.441406.996094.992188.996094h13.394531c.550781 0 .992187-.445313.992187-.996094v-.183594c0 .550782-.441406.992188-.992187.992188h-13.394531c-.550782 0-.992188-.441406-.992188-.992188zm0 0"/><path d="m3.96875 6.949219v.183593c0 .550782.441406.992188.992188.992188h13.394531c.550781 0 .992187-.441406.992187-.992188v-.183593c0 .546875-.441406.992187-.992187.992187h-13.394531c-.550782 0-.992188-.445312-.992188-.992187zm0 0"/><path d="m3.96875 13.398438v.183593c0 .550781.441406.992188.992188.992188h13.394531c.550781 0 .992187-.441407.992187-.992188v-.183593c0 .546874-.441406.992187-.992187.992187h-13.394531c-.550782 0-.992188-.445313-.992188-.992187zm0 0"/></g><path d="m105.823228 106.469301h285.722715c11.748878 0 21.164645 9.499093 21.164645 21.164646v84.658582c0 11.748878-9.415767 21.247971-21.164645 21.247971h-285.722715c-11.665553 0-21.164646-9.499093-21.164646-21.247971v-84.658582c0-11.665553 9.499093-21.164646 21.164646-21.164646zm0 0" fill="none" stroke="#212121" stroke-linecap="round" stroke-linejoin="round" stroke-width="3" transform="matrix(.0468795 0 0 .0468795 0 10.079087)"/><path d="m105.823228-168.671091h285.722715c11.748878 0 21.164645 9.499093 21.164645 21.164646v84.658582c0 11.665553-9.415767 21.164645-21.164645 21.164645h-285.722715c-11.665553 0-21.164646-9.499092-21.164646-21.164645v-84.658582c0-11.665553 9.499093-21.164646 21.164646-21.164646zm0 0" fill="none" stroke="#212121" stroke-linecap="round" stroke-linejoin="round" stroke-width="3" transform="matrix(.0468795 0 0 .0468795 0 10.079087)"/><path d="m105.823228-31.100895h285.722715c11.748878 0 21.164645 9.499093 21.164645 21.164646v84.658582c0 11.748878-9.415767 21.164645-21.164645 21.164645h-285.722715c-11.665553 0-21.164646-9.415767-21.164646-21.164645v-84.658582c0-11.665553 9.499093-21.164646 21.164646-21.164646zm0 0" fill="none" stroke="#212121" stroke-linecap="round" stroke-linejoin="round" stroke-width="3" transform="matrix(.0468795 0 0 .0468795 0 10.079087)"/></svg>

<?xml version="1.0" encoding="UTF-8"?>
<svg xmlns="http://www.w3.org/2000/svg" xmlns:xlink="http://www.w3.org/1999/xlink" width="24px" height="24px" viewBox="0 0 24 24" version="1.1">
<defs>
<linearGradient id="linear0" gradientUnits="userSpaceOnUse" x1="254" y1="233.5" x2="254" y2="254.666672" gradientTransform="matrix(0.0468795,0,0,0.0468795,0.49614,10.079089)">
<stop offset="0" style="stop-color:rgb(0%,0%,0%);stop-opacity:0.27451;"/>
<stop offset="1" style="stop-color:rgb(0%,0%,0%);stop-opacity:0;"/>
</linearGradient>
<radialGradient id="radial0" gradientUnits="userSpaceOnUse" cx="450.908936" cy="189.579361" fx="450.908936" fy="189.579361" r="21.166656" gradientTransform="matrix(0.000000130628,-0.0585994,-0.105479,-0.0000000761539,37.113427,47.696499)">
<stop offset="0" style="stop-color:rgb(0%,0%,0%);stop-opacity:0.313726;"/>
<stop offset="0.222222" style="stop-color:rgb(0%,0%,0%);stop-opacity:0.27451;"/>
<stop offset="1" style="stop-color:rgb(0%,0%,0%);stop-opacity:0;"/>
</radialGradient>
<radialGradient id="radial1" gradientUnits="userSpaceOnUse" cx="450.908936" cy="189.579361" fx="450.908936" fy="189.579361" r="21.166656" gradientTransform="matrix(-0.000000130628,0.0585994,0.105479,0.0000000761539,-13.794787,-5.645609)">
<stop offset="0" style="stop-color:rgb(0%,0%,0%);stop-opacity:0.313726;"/>
<stop offset="0.222222" style="stop-color:rgb(0%,0%,0%);stop-opacity:0.27451;"/>
<stop offset="1" style="stop-color:rgb(0%,0%,0%);stop-opacity:0;"/>
</radialGradient>
<radialGradient id="radial2" gradientUnits="userSpaceOnUse" cx="450.908936" cy="189.579361" fx="450.908936" fy="189.579361" r="21.166656" gradientTransform="matrix(-0.000000130628,-0.0585994,0.105479,-0.0000000761539,-13.794787,47.696499)">
<stop offset="0" style="stop-color:rgb(0%,0%,0%);stop-opacity:0.313726;"/>
<stop offset="0.222222" style="stop-color:rgb(0%,0%,0%);stop-opacity:0.27451;"/>
<stop offset="1" style="stop-color:rgb(0%,0%,0%);stop-opacity:0;"/>
</radialGradient>
<radialGradient id="radial3" gradientUnits="userSpaceOnUse" cx="450.908936" cy="189.579361" fx="450.908936" fy="189.579361" r="21.166656" gradientTransform="matrix(0.000000130628,0.0585994,-0.105479,0.0000000761539,37.113425,-5.64561)">
<stop offset="0" style="stop-color:rgb(0%,0%,0%);stop-opacity:0.313726;"/>
<stop offset="0.222222" style="stop-color:rgb(0%,0%,0%);stop-opacity:0.27451;"/>
<stop offset="1" style="stop-color:rgb(0%,0%,0%);stop-opacity:0;"/>
</radialGradient>
<linearGradient id="linear1" gradientUnits="userSpaceOnUse" x1="248.708344" y1="148.833328" x2="248.708344" y2="-73.416664" gradientTransform="matrix(0.0468795,0,0,0.0468795,0,10.079087)">
<stop offset="0" style="stop-color:rgb(61.960787%,61.960787%,61.960787%);stop-opacity:1;"/>
<stop offset="1" style="stop-color:rgb(74.117649%,74.117649%,74.117649%);stop-opacity:1;"/>
</linearGradient>
<linearGradient id="linear2" gradientUnits="userSpaceOnUse" x1="248.708344" y1="148.833328" x2="248.708344" y2="-73.416664" gradientTransform="matrix(1,0,0,1,0,0)">
<stop offset="0" style="stop-color:rgb(0%,0%,0%);stop-opacity:0.313726;"/>
<stop offset="0.222222" style="stop-color:rgb(0%,0%,0%);stop-opacity:0.27451;"/>
<stop offset="1" style="stop-color:rgb(0%,0%,0%);stop-opacity:0;"/>
</linearGradient>
<linearGradient id="linear3" gradientUnits="userSpaceOnUse" x1="84.666664" y1="170" x2="412.75" y2="170" gradientTransform="matrix(0.0468795,0,0,0.0468795,0,10.079087)">
<stop offset="0" style="stop-color:rgb(74.117649%,74.117649%,74.117649%);stop-opacity:1;"/>
<stop offset="0.5" style="stop-color:rgb(87.843138%,87.843138%,87.843138%);stop-opacity:1;"/>
<stop offset="1" style="stop-color:rgb(74.117649%,74.117649%,74.117649%);stop-opacity:1;"/>
</linearGradient>
<linearGradient id="linear4" gradientUnits="userSpaceOnUse" x1="83.166664" y1="-105.166672" x2="412.75" y2="-105.166656" gradientTransform="matrix(0.0468795,0,0,0.0468795,0,10.079087)">
<stop offset="0" style="stop-color:rgb(74.117649%,74.117649%,74.117649%);stop-opacity:1;"/>
<stop offset="0.5" style="stop-color:rgb(87.843138%,87.843138%,87.843138%);stop-opacity:1;"/>
<stop offset="1" style="stop-color:rgb(74.117649%,74.117649%,74.117649%);stop-opacity:1;"/>
</linearGradient>
<linearGradient id="linear5" gradientUnits="userSpaceOnUse" x1="84.666664" y1="32.416664" x2="412.75" y2="32.416664" gradientTransform="matrix(0.0468795,0,0,0.0468795,0,10.079087)">
<stop offset="0" style="stop-color:rgb(74.117649%,74.117649%,74.117649%);stop-opacity:1;"/>
<stop offset="0.5" style="stop-color:rgb(87.843138%,87.843138%,87.843138%);stop-opacity:1;"/>
<stop offset="1" style="stop-color:rgb(74.117649%,74.117649%,74.117649%);stop-opacity:1;"/>
</linearGradient>
</defs>
<g id="surface1">
<path style=" stroke:none;fill-rule:nonzero;fill:url(#linear0);" d="M 5.953125 21.027344 L 17.363281 21.027344 L 17.363281 22.019531 L 5.953125 22.019531 Z M 5.953125 21.027344 "/>
<path style=" stroke:none;fill-rule:nonzero;fill:url(#radial0);" d="M 17.363281 21.027344 L 19.347656 21.027344 L 19.347656 20.03125 L 17.363281 20.03125 Z M 17.363281 21.027344 "/>
<path style=" stroke:none;fill-rule:nonzero;fill:url(#radial1);" d="M 5.953125 21.027344 L 3.96875 21.027344 L 3.96875 22.019531 L 5.953125 22.019531 Z M 5.953125 21.027344 "/>
<path style=" stroke:none;fill-rule:nonzero;fill:url(#radial2);" d="M 5.953125 21.027344 L 3.96875 21.027344 L 3.96875 20.03125 L 5.953125 20.03125 Z M 5.953125 21.027344 "/>
<path style=" stroke:none;fill-rule:nonzero;fill:url(#radial3);" d="M 17.363281 21.027344 L 19.347656 21.027344 L 19.347656 22.019531 L 17.363281 22.019531 Z M 17.363281 21.027344 "/>
<path style=" stroke:none;fill-rule:nonzero;fill:rgb(0%,0%,0%);fill-opacity:0.235294;" d="M 3.96875 19.648438 L 3.96875 20.03125 C 3.96875 20.582031 4.410156 21.027344 4.960938 21.027344 L 18.355469 21.027344 C 18.90625 21.027344 19.347656 20.582031 19.347656 20.03125 L 19.347656 19.648438 C 19.347656 20.199219 18.90625 20.640625 18.355469 20.640625 L 4.960938 20.640625 C 4.410156 20.640625 3.96875 20.199219 3.96875 19.648438 Z M 3.96875 19.648438 "/>
<path style=" stroke:none;fill-rule:nonzero;fill:url(#linear1);" d="M 4.960938 6.636719 L 18.355469 6.636719 L 18.355469 17.054688 L 4.960938 17.054688 Z M 4.960938 6.636719 "/>
<path style="fill-rule:nonzero;fill:url(#linear2);stroke-width:3;stroke-linecap:round;stroke-linejoin:round;stroke:rgb(12.941177%,12.941177%,12.941177%);stroke-opacity:1;stroke-miterlimit:4;" d="M 105.823228 -73.430186 L 391.545943 -73.430186 L 391.545943 148.798592 L 105.823228 148.798592 Z M 105.823228 -73.430186 " transform="matrix(0.0468795,0,0,0.0468795,0,10.079087)"/>
<path style=" stroke:none;fill-rule:nonzero;fill:url(#linear3);" d="M 4.960938 15.070312 L 18.355469 15.070312 C 18.90625 15.070312 19.347656 15.515625 19.347656 16.0625 L 19.347656 20.03125 C 19.347656 20.582031 18.90625 21.027344 18.355469 21.027344 L 4.960938 21.027344 C 4.414062 21.027344 3.96875 20.582031 3.96875 20.03125 L 3.96875 16.0625 C 3.96875 15.515625 4.414062 15.070312 4.960938 15.070312 Z M 4.960938 15.070312 "/>
<path style=" stroke:none;fill-rule:nonzero;fill:url(#linear4);" d="M 4.960938 2.171875 L 18.355469 2.171875 C 18.90625 2.171875 19.347656 2.617188 19.347656 3.164062 L 19.347656 7.132812 C 19.347656 7.679688 18.90625 8.125 18.355469 8.125 L 4.960938 8.125 C 4.414062 8.125 3.96875 7.679688 3.96875 7.132812 L 3.96875 3.164062 C 3.96875 2.617188 4.414062 2.171875 4.960938 2.171875 Z M 4.960938 2.171875 "/>
<path style=" stroke:none;fill-rule:nonzero;fill:url(#linear5);" d="M 4.960938 8.621094 L 18.355469 8.621094 C 18.90625 8.621094 19.347656 9.066406 19.347656 9.613281 L 19.347656 13.582031 C 19.347656 14.132812 18.90625 14.574219 18.355469 14.574219 L 4.960938 14.574219 C 4.414062 14.574219 3.96875 14.132812 3.96875 13.582031 L 3.96875 9.613281 C 3.96875 9.066406 4.414062 8.621094 4.960938 8.621094 Z M 4.960938 8.621094 "/>
<path style=" stroke:none;fill-rule:nonzero;fill:rgb(100%,100%,100%);fill-opacity:1;" d="M 4.960938 15.070312 C 4.410156 15.070312 3.96875 15.515625 3.96875 16.0625 L 3.96875 16.3125 C 3.96875 15.761719 4.410156 15.320312 4.960938 15.320312 L 18.355469 15.320312 C 18.90625 15.320312 19.347656 15.761719 19.347656 16.3125 L 19.347656 16.0625 C 19.347656 15.515625 18.90625 15.070312 18.355469 15.070312 Z M 4.960938 15.070312 "/>
<path style=" stroke:none;fill-rule:nonzero;fill:rgb(100%,100%,100%);fill-opacity:1;" d="M 4.960938 2.171875 C 4.410156 2.171875 3.96875 2.613281 3.96875 3.164062 L 3.96875 3.414062 C 3.96875 2.863281 4.410156 2.421875 4.960938 2.421875 L 18.355469 2.421875 C 18.90625 2.421875 19.347656 2.863281 19.347656 3.414062 L 19.347656 3.164062 C 19.347656 2.613281 18.90625 2.171875 18.355469 2.171875 Z M 4.960938 2.171875 "/>
<path style=" stroke:none;fill-rule:nonzero;fill:rgb(100%,100%,100%);fill-opacity:1;" d="M 4.960938 8.621094 C 4.410156 8.621094 3.96875 9.066406 3.96875 9.613281 L 3.96875 9.863281 C 3.96875 9.3125 4.410156 8.871094 4.960938 8.871094 L 18.355469 8.871094 C 18.90625 8.871094 19.347656 9.3125 19.347656 9.863281 L 19.347656 9.613281 C 19.347656 9.066406 18.90625 8.621094 18.355469 8.621094 Z M 4.960938 8.621094 "/>
<path style=" stroke:none;fill-rule:nonzero;fill:rgb(0%,0%,0%);fill-opacity:0.235294;" d="M 3.96875 19.847656 L 3.96875 20.03125 C 3.96875 20.582031 4.410156 21.027344 4.960938 21.027344 L 18.355469 21.027344 C 18.90625 21.027344 19.347656 20.582031 19.347656 20.03125 L 19.347656 19.847656 C 19.347656 20.398438 18.90625 20.839844 18.355469 20.839844 L 4.960938 20.839844 C 4.410156 20.839844 3.96875 20.398438 3.96875 19.847656 Z M 3.96875 19.847656 "/>
<path style=" stroke:none;fill-rule:nonzero;fill:rgb(0%,0%,0%);fill-opacity:0.235294;" d="M 3.96875 6.949219 L 3.96875 7.132812 C 3.96875 7.683594 4.410156 8.125 4.960938 8.125 L 18.355469 8.125 C 18.90625 8.125 19.347656 7.683594 19.347656 7.132812 L 19.347656 6.949219 C 19.347656 7.496094 18.90625 7.941406 18.355469 7.941406 L 4.960938 7.941406 C 4.410156 7.941406 3.96875 7.496094 3.96875 6.949219 Z M 3.96875 6.949219 "/>
<path style=" stroke:none;fill-rule:nonzero;fill:rgb(0%,0%,0%);fill-opacity:0.235294;" d="M 3.96875 13.398438 L 3.96875 13.582031 C 3.96875 14.132812 4.410156 14.574219 4.960938 14.574219 L 18.355469 14.574219 C 18.90625 14.574219 19.347656 14.132812 19.347656 13.582031 L 19.347656 13.398438 C 19.347656 13.945312 18.90625 14.390625 18.355469 14.390625 L 4.960938 14.390625 C 4.410156 14.390625 3.96875 13.945312 3.96875 13.398438 Z M 3.96875 13.398438 "/>
<path style="fill:none;stroke-width:3;stroke-linecap:round;stroke-linejoin:round;stroke:rgb(12.941177%,12.941177%,12.941177%);stroke-opacity:1;stroke-miterlimit:4;" d="M 105.823228 106.469301 L 391.545943 106.469301 C 403.294821 106.469301 412.710588 115.968394 412.710588 127.633947 L 412.710588 212.292529 C 412.710588 224.041407 403.294821 233.5405 391.545943 233.5405 L 105.823228 233.5405 C 94.157675 233.5405 84.658582 224.041407 84.658582 212.292529 L 84.658582 127.633947 C 84.658582 115.968394 94.157675 106.469301 105.823228 106.469301 Z M 105.823228 106.469301 " transform="matrix(0.0468795,0,0,0.0468795,0,10.079087)"/>
<path style="fill:none;stroke-width:3;stroke-linecap:round;stroke-linejoin:round;stroke:rgb(12.941177%,12.941177%,12.941177%);stroke-opacity:1;stroke-miterlimit:4;" d="M 105.823228 -168.671091 L 391.545943 -168.671091 C 403.294821 -168.671091 412.710588 -159.171998 412.710588 -147.506445 L 412.710588 -62.847863 C 412.710588 -51.18231 403.294821 -41.683218 391.545943 -41.683218 L 105.823228 -41.683218 C 94.157675 -41.683218 84.658582 -51.18231 84.658582 -62.847863 L 84.658582 -147.506445 C 84.658582 -159.171998 94.157675 -168.671091 105.823228 -168.671091 Z M 105.823228 -168.671091 " transform="matrix(0.0468795,0,0,0.0468795,0,10.079087)"/>
<path style="fill:none;stroke-width:3;stroke-linecap:round;stroke-linejoin:round;stroke:rgb(12.941177%,12.941177%,12.941177%);stroke-opacity:1;stroke-miterlimit:4;" d="M 105.823228 -31.100895 L 391.545943 -31.100895 C 403.294821 -31.100895 412.710588 -21.601802 412.710588 -9.936249 L 412.710588 74.722333 C 412.710588 86.471211 403.294821 95.886978 391.545943 95.886978 L 105.823228 95.886978 C 94.157675 95.886978 84.658582 86.471211 84.658582 74.722333 L 84.658582 -9.936249 C 84.658582 -21.601802 94.157675 -31.100895 105.823228 -31.100895 Z M 105.823228 -31.100895 " transform="matrix(0.0468795,0,0,0.0468795,0,10.079087)"/>
</g>
</svg>
